svgs/light/hockey-puck.svg

<svg xmlns="http://www.w3.org/2000/svg" viewBox="0 0 512 512"><!-- Font Awesome Pro 6.0.0-alpha2 by @fontawesome - https://fontawesome.com License - https://fontawesome.com/license (Commercial License) --><path d="M256 80C128.781 80 0 112.969 0 176V336C0 399.031 128.781 432 256 432S512 399.031 512 336V176C512 112.969 383.219 80 256 80ZM256 112C392.734 112 480 149.906 480 176S392.734 240 256 240S32 202.094 32 176S119.266 112 256 112ZM256 400C119.266 400 32 362.094 32 336V224.898C78.061 255.941 167.34 272 256 272S433.939 255.941 480 224.898V336C480 362.094 392.734 400 256 400Z"/></svg>

<svg xmlns="http://www.w3.org/2000/svg" viewBox="0 0 512 512"><!--! Font Awesome Pro 6.3.0 by @fontawesome - https://fontawesome.com License - https://fontawesome.com/license (Commercial License) Copyright 2023 Fonticons, Inc. --><path d="M256 80c-127.2 0-256 32.97-256 96v160c0 63.03 128.8 96 256 96s256-32.97 256-96v-160C512 112.1 383.2 80 256 80zM256 112c136.7 0 224 37.91 224 64s-87.27 64-224 64s-224-37.91-224-64S119.3 112 256 112zM256 400c-136.7 0-224-37.91-224-64V224.9C78.06 255.9 167.3 272 256 272s177.9-16.06 224-47.1V336C480 362.1 392.7 400 256 400z"/></svg>
